X:1
T:Young Tamblin (Tam Lin etc.)
M:4/4
L:1/8
K:C
 z4 z2 EE| A3/2 A/2 AG E2 EE| cc BA B3 E| e3 d B2 G2| d6 cd| ee ee A3 G|\
 AB AG E2 EE| A3 A G2 E2| c3 A B2 cB| A2 G2 E2 D2| A6 z2|

